X:1
T:The Scopes Trial
M:4/4
L:1/8
K:C
 EF| GG GF E2 ED| CC CB, A,2 CC| G,C CC CA, B,C| D4- D2 EF| GG GF E2 ED|\
 CC CB, A,2 CA,| G,A, B,C DF B,D| C4- C2 EF| GG GF E2 ED| CC CB, A,2C-C|\
 G,C CC CA, B,C| D4- D2 EF| GG GF E2 ED| CC CB, A,2 CA,| G,A, B,C DF B,D|\
 C4- C2 DE| FF FF F2 CF| EE CD E2 ED| CC CC CA, B,C| D4- D z EF| GG GF E2 ED|\
 CD CB, A,2 B,A,| G,A, B,C DF B,D| C4- C z||
